packages/homepage/src/assets/icons/home-more.svg

<svg fill="none" height="44" viewBox="0 0 44 44" width="44" xmlns="http://www.w3.org/2000/svg"><path clip-rule="evenodd" d="m22 40c9.9411 0 18-8.0589 18-18s-8.0589-18-18-18-18 8.0589-18 18 8.0589 18 18 18zm5-18c0 1.1046.8954 2 2 2s2-.8954 2-2-.8954-2-2-2-2 .8954-2 2zm-7 0c0 1.1046.8954 2 2 2s2-.8954 2-2-.8954-2-2-2-2 .8954-2 2zm-5 2c-1.1046 0-2-.8954-2-2s.8954-2 2-2 2 .8954 2 2-.8954 2-2 2z" fill="#fff" fill-rule="evenodd"/></svg>

<svg width="44" height="44" viewBox="0 0 44 44" fill="none" xmlns="http://www.w3.org/2000/svg">
<path fill-rule="evenodd" clip-rule="evenodd" d="M22 40C31.9411 40 40 31.9411 40 22C40 12.0589 31.9411 4 22 4C12.0589 4 4 12.0589 4 22C4 31.9411 12.0589 40 22 40ZM27 22C27 23.1046 27.8954 24 29 24C30.1046 24 31 23.1046 31 22C31 20.8954 30.1046 20 29 20C27.8954 20 27 20.8954 27 22ZM20 22C20 23.1046 20.8954 24 22 24C23.1046 24 24 23.1046 24 22C24 20.8954 23.1046 20 22 20C20.8954 20 20 20.8954 20 22ZM15 24C13.8954 24 13 23.1046 13 22C13 20.8954 13.8954 20 15 20C16.1046 20 17 20.8954 17 22C17 23.1046 16.1046 24 15 24Z" fill="white"/>
</svg>
